X:491
%%etbk:tnset id:104,pos:3,rep:3x,ant:
%%etbk:wsite http://www.trad.katesplacedoolin.com/tunes/kilmaley.html
%%etbk:pldat 2015-12-22T17:24,2014-09-25T18:52,2014-05-09T19:00,2014-05-07T16:53,2014-03-20T19:07,2013-11-23T16:23,2013-11-16T16:14,2013-11-12T18:41,2013-11-07T16:37,2013-11-04T18:58,2013-10-09T17:30,2013-10-02T17:26,2013-09-30T18:59,2013-09-29T16:37,2013-09-16T14:58,2013-09-11T18:58
T:Kilmaley Jig, The
T: Boys of the Town
Z: Piano Box Version by Martin Fleischmann
H: Created 2013-09-11 /  Last Modified 2013-09-15
R:jig
M:6/8
K:Gmaj
|:!1!G2G !1!G!3!B!4!d|!5!ed!3!B !4!dB!2!A|!1!GGG !1!G!3!B!4!d|!5!edB !2!A!1!DD|
!2!G2!1!G !1!G!3!B!4!d|!3!ed!1!B !5!g2g|!3!e!2!d!1!B !2!AGA|1 !3!B!1!G!2!F !3!G2!1!D:|2 BGF !1!G2!3!d||
|:!1!def !4!ggg|!5!afd !2!e!1!d!2!B|!1!def !4!g2g|!5!afd !2!e2d|
[1 !1!def !4!ggg|!5!afd !2!efg|!2!e!1!d!3!B !2!AGA|!3!BGF G2!3!d:|
[2 !1!def !4!g!5!bb|!3!f!5!aa !2!efg|!2!e!1!d!3!B !2!AGA|!3!B!1!G!2!F G2D||


